lib/logotmp/nrk-logo-nrk-trondelag-title-below-on-light.svg

<svg width="78" height="41" viewBox="0 0 78 41" fill="none" xmlns="http://www.w3.org/2000/svg">
<path d="M0 17.9976V5.99865H4V17.9976H0ZM9.24381 7.90834L11.5081 17.9976H7.19917L4.49549 5.99865H6.91217C7.46635 5.99146 8.00406 6.18681 8.4245 6.54795C8.84562 6.89394 9.08495 7.37426 9.24381 7.90834ZM12 17.9976V5.99865H16V17.9976H12ZM19.0105 10.5617C18.5862 10.5658 18.1687 10.4548 17.8025 10.2405C17.4412 10.0317 17.1411 9.73152 16.9323 9.37016C16.7178 9.00389 16.6068 8.58632 16.611 8.16188C16.6061 7.74002 16.7172 7.32494 16.9323 6.96199C17.1433 6.60455 17.4431 6.30765 17.8025 6.10008C18.1689 5.88606 18.5862 5.77507 19.0105 5.77894C19.4322 5.7744 19.8471 5.88549 20.2102 6.10008C20.566 6.30947 20.8626 6.60612 21.072 6.96199C21.2868 7.32504 21.3979 7.74005 21.3933 8.16188C21.3973 8.58629 21.2863 9.00379 21.072 9.37016C20.8649 9.72993 20.5679 10.0298 20.2102 10.2405C19.8471 10.4555 19.4324 10.5666 19.0105 10.5617ZM22 17.9976V5.99865H26V17.9976H22ZM30.9737 12.5558C30.9848 12.5674 31.0693 12.7054 31.2272 12.9698C31.3851 13.2342 31.5906 13.5722 31.8439 13.9838C32.0974 14.3953 32.3649 14.8318 32.6463 15.2936C32.9278 15.7553 33.1926 16.1919 33.4408 16.6033C33.6881 17.0147 33.9697 17.4795 34.2857 17.9976H29.9598C29.6893 17.5582 29.4441 17.161 29.2245 16.8061C29.0048 16.4512 28.7713 16.0681 28.5238 15.6569C28.2758 15.2461 28.0306 14.8461 27.7882 14.457C27.5458 14.0679 27.3375 13.7272 27.1633 13.4346C26.9883 13.1419 26.8671 12.9447 26.7997 12.8431C26.6325 12.591 26.5336 12.2999 26.5127 11.9981C26.5294 11.7085 26.6226 11.4285 26.7828 11.1867C26.8503 11.074 26.9743 10.874 27.1545 10.5867C27.3348 10.2994 27.546 9.95861 27.7882 9.56428C28.0304 9.16995 28.2756 8.76716 28.5238 8.35593C28.772 7.9447 29.0055 7.55879 29.2245 7.19826C29.4445 6.83811 29.6897 6.43814 29.9598 5.99837H34.2857L30.9396 11.4571C30.8361 11.6191 30.7777 11.8059 30.7706 11.9981C30.7818 12.1999 30.8528 12.3939 30.9737 12.5558Z" fill="#0A2343"/>
<g clip-path="url(#clip0_5918_1323)">
<path d="M5.64309 24.4866V34.9956H3.86907V24.4866H0V22.9998H9.49527V24.4866H5.64309ZM12.9588 26.3198C12.6435 26.4042 12.345 26.5338 12.0634 26.7084C11.7818 26.8829 11.5171 27.0941 11.2693 27.3419C11.2299 27.3814 11.1904 27.4264 11.151 27.4687V26.2099L9.42768 26.4634V34.9956H11.151V28.6119C11.2806 28.5218 11.4129 28.4373 11.5481 28.3641C11.7227 28.2684 11.8972 28.1867 12.0718 28.1191C12.2464 28.0516 12.4238 27.9924 12.604 27.9417C12.7843 27.891 12.9729 27.8544 13.17 27.8319C13.3671 27.8094 13.5727 27.8038 13.7867 27.815L13.9895 26.2268C13.6178 26.2043 13.2742 26.2353 12.9588 26.3198ZM23.603 26.6999L22.6259 27.7362C22.7498 27.8995 22.868 28.0741 22.9694 28.2627C23.3242 28.9217 23.5016 29.696 23.5016 30.5859C23.5016 31.5208 23.3101 32.3317 22.9272 33.0188C22.5442 33.7059 22.0176 34.2353 21.3475 34.607C20.6773 34.9787 19.9029 35.1646 19.0243 35.1646C18.1458 35.1646 17.4221 34.99 16.7857 34.6408C16.6421 34.5619 16.5069 34.4718 16.3774 34.3761L15.4763 35.3504L14.6991 34.6408L15.6396 33.6383C15.5185 33.475 15.4059 33.3004 15.3073 33.1118C14.9581 32.4416 14.7836 31.6447 14.7836 30.721C14.7836 29.7974 14.9666 28.9977 15.3327 28.3219C15.6987 27.6461 16.2112 27.1223 16.8701 26.7506C17.5291 26.3789 18.2978 26.193 19.1764 26.193C20.0549 26.193 20.8321 26.3733 21.4742 26.7337C21.6121 26.8097 21.7389 26.897 21.8628 26.99L22.8089 25.9903L23.603 26.6999ZM16.5914 30.6197C16.5914 31.3096 16.6927 31.8868 16.8983 32.3571L20.8293 28.1107C20.6773 27.9727 20.5055 27.8573 20.3112 27.77C19.9958 27.6292 19.6241 27.5588 19.1961 27.5588C18.6667 27.5588 18.2077 27.6714 17.8191 27.8967C17.4305 28.1219 17.1292 28.4599 16.9152 28.9104C16.7012 29.361 16.5942 29.9298 16.5942 30.6169L16.5914 30.6197ZM21.7107 30.6197C21.7107 30.1579 21.6572 29.7383 21.5502 29.361C21.508 29.2145 21.4573 29.0765 21.401 28.947L17.4671 33.1934C17.5657 33.2863 17.6671 33.3708 17.7825 33.4412C18.1598 33.6778 18.6019 33.796 19.1088 33.796C19.6157 33.796 20.0634 33.6806 20.452 33.4497C20.8406 33.2188 21.1475 32.8668 21.3728 32.3937C21.5981 31.9206 21.7107 31.3293 21.7107 30.6197ZM32.2873 26.5479C31.8593 26.3113 31.3186 26.193 30.6653 26.193C30.181 26.193 29.6995 26.2691 29.2207 26.4211C28.742 26.5732 28.2887 26.79 27.8607 27.0716C27.6973 27.1786 27.5396 27.2969 27.3876 27.418V26.2099L25.6642 26.4634V34.9956H27.3876V28.5781C27.5509 28.4824 27.7227 28.3923 27.9029 28.3134C28.1451 28.2064 28.3872 28.1135 28.6294 28.0347C28.8716 27.9558 29.1137 27.8967 29.3559 27.8573C29.5981 27.8178 29.8318 27.7981 30.0571 27.7981C30.3725 27.7981 30.6428 27.8404 30.8681 27.9248C31.0933 28.0093 31.2792 28.136 31.4256 28.305C31.572 28.4739 31.679 28.6879 31.7466 28.947C31.8142 29.2061 31.848 29.5102 31.848 29.8594V34.9956H33.5713V29.5046C33.5713 28.7386 33.4643 28.1135 33.2503 27.6292C33.0363 27.1448 32.7153 26.7844 32.2873 26.5479ZM42.036 22.4929L43.7593 22.2564V34.9956H42.357L42.1458 34.2156C42.0191 34.3085 41.8924 34.3958 41.7657 34.4718C41.3827 34.7084 40.9913 34.883 40.5914 34.9956C40.1916 35.1082 39.7663 35.1646 39.3158 35.1646C38.5386 35.1646 37.8712 34.9928 37.3137 34.6492C36.7561 34.3057 36.3281 33.8185 36.0296 33.1878C35.7311 32.557 35.5819 31.808 35.5819 30.9407C35.5819 29.927 35.779 29.0681 36.1732 28.3641C36.5675 27.6601 37.0884 27.1223 37.7361 26.7506C38.3837 26.3789 39.0849 26.193 39.8396 26.193C40.2676 26.193 40.659 26.2297 41.0138 26.3029C41.3686 26.3761 41.6924 26.469 41.9853 26.5816C42.0022 26.5873 42.0191 26.5957 42.036 26.6042V22.4929ZM42.036 33.1061V27.8995C41.9487 27.8685 41.8558 27.8319 41.7741 27.8066C41.5094 27.7221 41.2475 27.6601 40.9885 27.6207C40.7294 27.5813 40.4591 27.5616 40.1775 27.5616C39.5918 27.5616 39.0877 27.6827 38.6653 27.9248C38.2429 28.167 37.9191 28.5218 37.6938 28.9893C37.4686 29.4567 37.3559 30.0396 37.3559 30.7379C37.3559 31.4363 37.4573 31.9966 37.66 32.4528C37.8628 32.909 38.1556 33.2469 38.5386 33.4666C38.9216 33.6862 39.3834 33.796 39.924 33.796C40.2845 33.796 40.6872 33.7144 41.1321 33.551C41.4165 33.4468 41.7178 33.2948 42.036 33.1061ZM53.6347 29.0146C53.7755 29.6228 53.8065 30.3212 53.7277 31.1096H47.6228C47.6453 31.5405 47.7044 31.9122 47.8058 32.2247C47.9353 32.619 48.1268 32.9315 48.3802 33.1624C48.6337 33.3933 48.9462 33.5567 49.3179 33.6524C49.6896 33.7481 50.1289 33.796 50.6358 33.796C50.8836 33.796 51.1314 33.7819 51.3792 33.7538C51.627 33.7256 51.8692 33.6806 52.1057 33.6186C52.3422 33.5567 52.5703 33.4863 52.79 33.4074C53.0096 33.3286 53.2264 33.2497 53.4404 33.1709L53.3222 34.4718C53.018 34.6295 52.7139 34.7591 52.4098 34.8604C52.1057 34.9618 51.7819 35.0378 51.4383 35.0885C51.0948 35.1392 50.6977 35.1646 50.2472 35.1646C49.301 35.1646 48.5013 34.9984 47.848 34.6661C47.1947 34.3339 46.702 33.8439 46.3697 33.1962C46.0374 32.5486 45.8713 31.7629 45.8713 30.8393C45.8713 30.141 45.9642 29.5074 46.15 28.9386C46.3359 28.3698 46.6062 27.8826 46.961 27.4771C47.3158 27.0716 47.7467 26.7562 48.2535 26.531C48.7604 26.3057 49.3348 26.193 49.9769 26.193C50.6189 26.193 51.1905 26.3001 51.6918 26.5141C52.193 26.7281 52.6069 27.0463 52.9336 27.4687C53.2602 27.891 53.4939 28.4064 53.6347 29.0146ZM47.8734 28.9217C47.7692 29.1976 47.7016 29.5327 47.6594 29.9101H52.1029C52.1029 29.5721 52.0635 29.2539 51.979 28.9639C51.8494 28.5134 51.6214 28.1614 51.2947 27.9079C50.9681 27.6545 50.5344 27.5278 49.9938 27.5278C49.4531 27.5278 49.0363 27.6432 48.6759 27.8741C48.3155 28.1051 48.048 28.4542 47.8734 28.9217ZM58.5006 33.7538C58.4499 33.7594 58.3908 33.7622 58.3232 33.7622C58.1768 33.7622 58.0529 33.7397 57.9515 33.6946C57.8502 33.6496 57.7657 33.5792 57.6981 33.4835C57.6305 33.3877 57.5826 33.2666 57.5545 33.1202C57.5263 32.9738 57.5122 32.7992 57.5122 32.5964V22.2395L55.7889 22.4929V33.3567C55.7889 33.6834 55.834 33.9622 55.9241 34.1931C56.0142 34.424 56.1437 34.6126 56.3127 34.7591C56.4816 34.9055 56.6816 35.0097 56.9125 35.0716C57.1434 35.1336 57.394 35.1646 57.6643 35.1646C57.7995 35.1646 57.929 35.1589 58.0529 35.1477C58.1768 35.1364 58.2979 35.1195 58.4162 35.097C58.5344 35.0744 58.633 35.0519 58.7118 35.0294L58.8808 33.6946L58.678 33.7284C58.6105 33.7397 58.5513 33.7481 58.5006 33.7538ZM68.1564 33.9143C68.2465 33.903 68.3423 33.8805 68.4436 33.8467L68.2578 34.9787C68.2015 35.0012 68.1367 35.0209 68.0635 35.0378C67.9903 35.0547 67.9086 35.0744 67.8185 35.097C67.7284 35.1195 67.6355 35.1336 67.5397 35.1392C67.444 35.1448 67.3454 35.1477 67.244 35.1477C66.8836 35.1477 66.5626 35.0885 66.281 34.9703C65.9994 34.852 65.7798 34.6605 65.6221 34.3958C65.5376 34.255 65.4785 34.0889 65.439 33.8974C65.332 34.0213 65.2222 34.1424 65.1068 34.2522C64.797 34.5451 64.4422 34.7703 64.0424 34.928C63.6425 35.0857 63.1666 35.1646 62.6147 35.1646C62.0177 35.1646 61.5193 35.0519 61.1194 34.8266C60.7196 34.6014 60.4211 34.3057 60.224 33.9396C60.0269 33.5736 59.9283 33.1765 59.9283 32.7485C59.9283 32.298 60.055 31.884 60.3085 31.5067C60.5619 31.1293 60.9477 30.8168 61.4658 30.569C61.9839 30.3212 62.6372 30.1748 63.4257 30.1297L65.3996 29.9973V29.575C65.3996 29.2483 65.3687 28.9639 65.3011 28.7217C65.2335 28.4796 65.1208 28.2796 64.9632 28.1219C64.8055 27.9643 64.5886 27.846 64.3127 27.7671C64.0367 27.6883 63.696 27.6489 63.2905 27.6489C63.0652 27.6489 62.8371 27.6573 62.6062 27.6742C62.3753 27.6911 62.1416 27.7221 61.9051 27.7671C61.6685 27.8122 61.4236 27.8685 61.1701 27.9361C60.9167 28.0037 60.6492 28.0882 60.3676 28.1895L60.5703 26.7534C60.8519 26.6408 61.1476 26.5422 61.4573 26.4577C61.7671 26.3733 62.0966 26.3085 62.4457 26.2634C62.7949 26.2184 63.1497 26.1959 63.5101 26.1959C64.0057 26.1959 64.4507 26.2409 64.8449 26.331C65.2391 26.4211 65.5798 26.5507 65.8671 26.7196C66.1543 26.8886 66.388 27.097 66.5682 27.3448C66.7485 27.5926 66.8836 27.8798 66.9737 28.2064C67.0638 28.5331 67.1089 28.8935 67.1089 29.2877L67.0751 32.7682C67.0638 33.185 67.1258 33.4835 67.2609 33.6637C67.3961 33.8439 67.6158 33.934 67.9199 33.934C67.9874 33.934 68.0663 33.9284 68.1564 33.9171V33.9143ZM65.3884 32.9034L65.3968 31.2279H63.9185C63.3665 31.2279 62.9273 31.273 62.6006 31.3631C62.274 31.4532 62.0374 31.594 61.891 31.7855C61.7446 31.9769 61.6714 32.2416 61.6714 32.5795C61.6714 32.8386 61.7277 33.0611 61.8403 33.2469C61.9529 33.4328 62.1191 33.5764 62.3387 33.6778C62.5584 33.7791 62.8259 33.8298 63.1413 33.8298C63.3891 33.8298 63.6284 33.8073 63.8593 33.7622C64.0902 33.7172 64.3099 33.644 64.5182 33.5426C64.7266 33.4412 64.9237 33.3173 65.1096 33.1709C65.2081 33.092 65.3011 33.0019 65.3912 32.9062L65.3884 32.9034ZM77.6348 26.193V34.9449C77.6348 35.6883 77.4686 36.3444 77.1364 36.9132C76.8041 37.4821 76.3113 37.927 75.658 38.248C75.0047 38.569 74.1994 38.7295 73.242 38.7295C72.859 38.7295 72.4873 38.707 72.1269 38.6619C71.7664 38.6169 71.4201 38.5521 71.0878 38.4676C70.7555 38.3831 70.4373 38.279 70.1332 38.1551L69.9473 36.6683C70.2965 36.8147 70.6513 36.9358 71.0117 37.0315C71.3722 37.1272 71.7298 37.1948 72.0846 37.2343C72.4394 37.2737 72.7858 37.2934 73.1237 37.2934C73.6305 37.2934 74.0614 37.2399 74.4162 37.1329C74.771 37.0259 75.0582 36.8626 75.2779 36.6429C75.4975 36.4233 75.6608 36.1529 75.7678 35.8319C75.8748 35.5109 75.9283 35.1364 75.9283 34.7084V34.2466C75.6101 34.4803 75.2891 34.6661 74.9653 34.7929C74.3683 35.0294 73.7657 35.1477 73.1575 35.1477C72.369 35.1477 71.6988 34.9759 71.1469 34.6323C70.595 34.2888 70.1754 33.8045 69.8882 33.1793C69.601 32.5542 69.4574 31.8136 69.4574 30.9576C69.4574 30.1916 69.57 29.513 69.7953 28.9217C70.0205 28.3303 70.3331 27.8347 70.733 27.4349C71.1328 27.035 71.5862 26.7281 72.0931 26.5141C72.5999 26.3001 73.1349 26.193 73.6981 26.193C74.0248 26.193 74.3289 26.2128 74.6105 26.2522C74.8921 26.2916 75.154 26.3451 75.3961 26.4127C75.6017 26.469 75.796 26.5394 75.9818 26.6183L77.6348 26.193ZM75.9283 33.0498V27.8995C75.8439 27.8685 75.7566 27.8347 75.6749 27.8066C75.4046 27.7221 75.1399 27.6573 74.8808 27.6123C74.6217 27.5672 74.3571 27.5447 74.0867 27.5447C73.6362 27.5447 73.2335 27.6151 72.8787 27.7559C72.5239 27.8967 72.2254 28.0966 71.9832 28.3557C71.7411 28.6147 71.5552 28.9442 71.4257 29.3441C71.2962 29.7439 71.2314 30.2029 71.2314 30.721C71.2314 31.4194 71.3243 31.991 71.5102 32.4359C71.696 32.8808 71.9832 33.2131 72.3718 33.4328C72.7604 33.6524 73.2476 33.7622 73.8333 33.7622C74.0473 33.7622 74.2529 33.7397 74.45 33.6946C74.6471 33.6496 74.8498 33.5848 75.0582 33.5003C75.2666 33.4159 75.4834 33.3089 75.7087 33.1793C75.7791 33.1399 75.8551 33.0949 75.9283 33.0498Z" fill="#1767CE"/>
</g>
<defs>
<clipPath id="clip0_5918_1323">
<rect width="78" height="17" fill="white" transform="translate(0 22)"/>
</clipPath>
</defs>
</svg>

<svg xmlns="http://www.w3.org/2000/svg" viewBox="0 0 78 41"><path fill="#0A2343" d="M0 17.998v-12h4v12H0Zm9.244-10.09 2.264 10.09H7.2l-2.704-12h2.417a2.276 2.276 0 0 1 1.513.55c.42.346.66.826.819 1.36ZM12 17.998v-12h4v12h-4Zm7.01-7.436a2.381 2.381 0 0 1-2.078-1.192 2.345 2.345 0 0 1-.321-1.208 2.301 2.301 0 0 1 .321-1.2A2.41 2.41 0 0 1 20.21 6.1c.356.21.653.506.862.862.215.363.326.778.321 1.2a2.35 2.35 0 0 1-.321 1.208 2.4 2.4 0 0 1-.862.87 2.301 2.301 0 0 1-1.2.322ZM22 17.998v-12h4v12h-4Zm8.974-5.442c.01.011.095.15.253.414s.364.602.617 1.014a316.22 316.22 0 0 1 1.597 2.62c.247.41.529.876.845 1.394H29.96c-.27-.44-.516-.837-.736-1.192-.22-.355-.453-.738-.7-1.15-.248-.41-.493-.81-.736-1.199-.242-.39-.45-.73-.625-1.022a18.04 18.04 0 0 0-.363-.592 1.747 1.747 0 0 1-.287-.845c.016-.29.11-.57.27-.811.067-.113.191-.313.371-.6a182.106 182.106 0 0 0 1.37-2.23l.7-1.159.736-1.2h4.326l-3.346 5.46a1.079 1.079 0 0 0-.17.54c.012.202.083.396.204.558Z"/><g clip-path="url(#a)"><path fill="#1767CE" d="M5.643 24.487v10.509H3.87v-10.51H0V23h9.495v1.487H5.643Zm7.316 1.833a3.32 3.32 0 0 0-.896.388 4.402 4.402 0 0 0-.794.634c-.04.04-.079.084-.118.127v-1.26l-1.723.254v8.533h1.723v-6.384a4.224 4.224 0 0 1 .92-.493c.175-.067.353-.127.533-.177a3.593 3.593 0 0 1 1.183-.127l.202-1.588a3.215 3.215 0 0 0-1.03.093Zm10.644.38-.977 1.036c.124.163.242.338.343.527.355.659.533 1.433.533 2.323 0 .935-.192 1.746-.575 2.433a4.006 4.006 0 0 1-1.58 1.588c-.67.372-1.444.558-2.323.558-.878 0-1.602-.175-2.238-.524a3.63 3.63 0 0 1-.409-.265l-.9.974-.778-.71.94-1.002a3.977 3.977 0 0 1-.332-.526c-.349-.67-.523-1.467-.523-2.391 0-.924.183-1.723.549-2.4.366-.675.878-1.199 1.537-1.57.66-.372 1.428-.558 2.306-.558.879 0 1.656.18 2.298.54.138.077.265.164.389.257l.946-1 .794.71Zm-7.012 3.92c0 .69.102 1.267.307 1.737l3.931-4.246a1.966 1.966 0 0 0-.518-.341c-.315-.14-.687-.211-1.115-.211-.53 0-.988.112-1.377.338-.389.225-.69.563-.904 1.013-.214.451-.32 1.02-.32 1.707l-.004.003Zm5.12 0c0-.462-.054-.882-.16-1.259a3.395 3.395 0 0 0-.15-.414l-3.934 4.246c.099.093.2.178.316.248.377.237.819.355 1.326.355.507 0 .954-.115 1.343-.346.389-.231.695-.583.92-1.056.226-.473.339-1.065.339-1.774Zm10.576-4.072c-.428-.237-.968-.355-1.622-.355a4.75 4.75 0 0 0-1.444.228 5.488 5.488 0 0 0-1.36.65 6.331 6.331 0 0 0-.473.347V26.21l-1.724.253v8.533h1.724v-6.418a4.94 4.94 0 0 1 .515-.265c.242-.107.484-.2.726-.278.243-.08.485-.138.727-.178.242-.04.476-.059.701-.059.316 0 .586.042.811.127.225.084.411.211.558.38.146.169.253.383.32.642.068.26.102.563.102.912v5.137h1.723v-5.491c0-.766-.107-1.392-.32-1.876-.215-.484-.536-.845-.964-1.081Zm9.749-4.055 1.723-.237v12.74h-1.402l-.211-.78a5 5 0 0 1-.38.256 4.608 4.608 0 0 1-1.175.524c-.4.112-.825.169-1.275.169-.777 0-1.445-.172-2.002-.516a3.355 3.355 0 0 1-1.284-1.461c-.299-.631-.448-1.38-.448-2.247 0-1.014.197-1.873.591-2.577.395-.704.915-1.242 1.563-1.613a4.154 4.154 0 0 1 2.104-.558 5.821 5.821 0 0 1 2.145.389.402.402 0 0 1 .051.022v-4.111Zm0 10.613V27.9c-.087-.03-.18-.067-.262-.092a5.11 5.11 0 0 0-1.596-.245c-.586 0-1.09.12-1.513.363a2.383 2.383 0 0 0-.971 1.064c-.225.468-.338 1.05-.338 1.749 0 .698.101 1.259.304 1.715.203.456.496.794.879 1.014.383.22.844.329 1.385.329.36 0 .763-.082 1.208-.245.285-.104.586-.256.904-.445Zm11.599-4.091c.14.608.172 1.306.093 2.095h-6.105c.022.43.081.802.183 1.115.13.394.32.706.574.937.254.231.566.395.938.49a5.33 5.33 0 0 0 1.318.144c.248 0 .495-.014.743-.042.248-.028.49-.073.727-.135.236-.062.464-.133.684-.212.22-.078.436-.157.65-.236l-.118 1.3a6.33 6.33 0 0 1-.912.39 5.694 5.694 0 0 1-.972.228c-.343.05-.74.076-1.19.076-.947 0-1.747-.167-2.4-.499a3.303 3.303 0 0 1-1.478-1.47c-.333-.647-.499-1.433-.499-2.357a6.1 6.1 0 0 1 .279-1.9 4.143 4.143 0 0 1 .811-1.462c.355-.405.786-.72 1.293-.946.506-.225 1.08-.338 1.723-.338.642 0 1.214.107 1.715.321.501.214.915.532 1.242.955.326.422.56.937.7 1.546Zm-5.762-.093a4.152 4.152 0 0 0-.214.988h4.444c0-.338-.04-.656-.124-.946-.13-.45-.358-.803-.684-1.056-.327-.254-.76-.38-1.301-.38-.54 0-.958.115-1.318.346-.36.231-.628.58-.803 1.048Zm10.628 4.832c-.051.005-.11.008-.178.008a.913.913 0 0 1-.371-.067.61.61 0 0 1-.254-.212.926.926 0 0 1-.144-.363 2.809 2.809 0 0 1-.042-.524V22.24l-1.723.253v10.864c0 .326.045.605.135.836.09.231.22.42.389.566.169.147.369.25.6.313.23.062.481.093.751.093a3.782 3.782 0 0 0 1.047-.135l.17-1.335-.203.033c-.067.012-.127.02-.177.026Zm9.655.16c.09-.011.186-.034.288-.067l-.186 1.132a1.336 1.336 0 0 1-.194.059 13.44 13.44 0 0 0-.245.059c-.09.023-.184.037-.28.042a5.063 5.063 0 0 1-.295.009c-.36 0-.681-.06-.963-.178a1.364 1.364 0 0 1-.659-.574 1.582 1.582 0 0 1-.183-.499 4.997 4.997 0 0 1-.332.355c-.31.293-.665.518-1.065.676-.4.158-.875.237-1.427.237-.597 0-1.096-.113-1.496-.338-.4-.226-.698-.521-.895-.887a2.473 2.473 0 0 1-.296-1.191c0-.451.127-.865.38-1.242.254-.378.64-.69 1.158-.938.518-.248 1.171-.394 1.96-.44l1.974-.132v-.422a3.2 3.2 0 0 0-.099-.853 1.34 1.34 0 0 0-.338-.6c-.157-.158-.374-.276-.65-.355a3.778 3.778 0 0 0-1.023-.118c-.225 0-.453.008-.684.025-.23.017-.464.048-.7.093a9.978 9.978 0 0 0-1.537.422l.201-1.436c.282-.112.578-.21.887-.295.31-.085.64-.15.989-.195a8.32 8.32 0 0 1 1.064-.067c.496 0 .94.045 1.335.135.394.09.735.22 1.022.389.287.169.521.377.701.625.18.248.316.535.406.861.09.327.135.688.135 1.082l-.034 3.48c-.011.417.05.715.186.896.135.18.355.27.659.27.067 0 .146-.006.236-.017v-.003Zm-2.768-1.01.009-1.676h-1.479c-.551 0-.99.045-1.317.135-.327.09-.564.231-.71.422-.146.192-.22.457-.22.795 0 .259.057.481.17.667.112.186.278.33.498.43.22.102.487.153.802.153.248 0 .487-.023.718-.068.231-.045.45-.118.66-.22a2.77 2.77 0 0 0 .873-.636l-.004-.003Zm12.247-6.711v8.752c0 .743-.166 1.4-.499 1.968-.332.57-.825 1.014-1.478 1.335-.653.321-1.459.482-2.416.482-.383 0-.755-.023-1.115-.068a8.47 8.47 0 0 1-1.04-.194 7.284 7.284 0 0 1-.954-.313l-.186-1.487c.35.147.704.268 1.065.364.36.095.718.163 1.073.202.354.04.7.06 1.039.06.507 0 .937-.054 1.292-.161.355-.107.642-.27.862-.49.22-.22.383-.49.49-.811.107-.321.16-.696.16-1.124v-.461c-.318.233-.639.42-.963.546-.597.236-1.2.355-1.808.355-.788 0-1.458-.172-2.01-.516a3.275 3.275 0 0 1-1.259-1.453c-.287-.625-.43-1.365-.43-2.221 0-.766.112-1.445.337-2.036a4.164 4.164 0 0 1 .938-1.487c.4-.4.853-.707 1.36-.92a4.084 4.084 0 0 1 1.605-.322c.327 0 .63.02.913.06.281.039.543.092.785.16.206.056.4.126.586.205l1.653-.425Zm-1.707 6.857V27.9c-.084-.031-.171-.065-.253-.093a6.244 6.244 0 0 0-.794-.195 4.621 4.621 0 0 0-.794-.067c-.45 0-.853.07-1.208.21-.355.142-.654.342-.896.6a2.592 2.592 0 0 0-.557.99c-.13.399-.195.858-.195 1.376 0 .698.093 1.27.28 1.715.185.445.472.777.86.997.39.22.877.33 1.462.33.214 0 .42-.023.617-.068.197-.045.4-.11.608-.195.209-.084.425-.191.65-.32.071-.04.147-.085.22-.13Z"/></g><defs><clipPath id="a"><path fill="#fff" d="M0 22h78v17H0z"/></clipPath></defs></svg>
